X:655
T:The frog in the well
R:Jig
O:Ireland
D:James Kelly: Capel Street
S:James Kelly: Capel Street
Z:Transcription, chords:Mike Long
M:6/8
L:1/8
K:G
"Em"~E3 GFE | BGE GFE | "D"D3 FED | FAD FED |\
"Em"~E3 GFE | BGE FEA |
"G"BGB "D"AFA |[1 "G"GBG "D"EB,D :|[2 "Em"GBG EGB |]\
"Em"eBe ~B3 | eBe {a}gfg | "D"fdd Add|
"D"faa {b}"A"agf|"Em"efe ~B3 | eBe {a}gfg | "D"fdB "A"AGF |\
"Em"GEE {F}EGB||"Em"eBe ~B3 |
 def gfe | "D"fdd Add| "D"faa {b}"A"agf|\
"Em"efe ~B3 | eBe {a}gfg | "D"edB "A"BAF | "Em"GEE E2D|]
